X:77
T:Reel. RHu.077
S:R.Hughes MS,1823,Whitchurch,Shrops.
A:Whitchurch , Shropshire
Z:Neil Brookes 2006
M:4/4
L:1/8
Q:1/2=90
R:Reel
K:D
G|FDFA dABG|FA df eEEG|FDFA dABG|Eege fdd::!
a/g/|fada bdc’d|gefd Bee a/g/|fada bdad|geag fdd:|

